X: 1833
T: Are You Willing?
R: reel
M: 4/4
K: Amixolydian
|:e|c2 A>c (ef/g/) af|g2 gB GB/c/ dB|c2 Ac (ef/g/) af|gefd ~e2A:|
^g|a2 ea cAaf|g2 dg BGdB|a2 ea cAaf|gefd e2 A^g|
a2 ea cAaf|g2 dg BGdB|cedf egfa|gefd ~e2A|

